X:1
T: Craigpark
C:
R:Reel
Q: 232
K:D
M:4/4
L:1/8
|:D2 D2 DE FG|A2 A2 AB cd|e2 e2 ed cB|A^G AB A=G FE|
D2 D2 DE FG|A2 A2 AB cd|ce cA Bd B^G|A2 A2 A2 z2:|
|:d2 d2 de dc|Bc BA G2 B2|e2 e2 ef ed|cd cB A2 Bc|
d2 d2 df ed|B2 e2 g2 fe|fa fd eg ec|d2 d2 d2 z2:|
